X: 602
T: Her Blushing Cheek.
T: a gruai.d a.dan.ta.ct.
R:air
N:"Moderate."
B:O'Neill's 602
Z:"Transcribed by John Walsh (walsh@math.ubc.ca)M:C
M:C
L:1/8
%Q:60
K:A
E|A>BAF AEEF|AB{B}AF {F}E3 E|F>BBc dfed|cAB>A A3||
E|AAce AA (c/d/e)|A>B (c/B/A/G/) F3E|FBBc dfe>d|c>A c/B/A/G/ A2 z||


